X: 1
T: Galen's Arrival
C: Alasdair Fraser
R: reel
Z: 2019 John Chambers <jc:trillian.mit.edu>
S: Concord Slow Scottish session
M: C|
L: 1/8
K: G
CGA \
| "G"B3A BGdB |  "C"c3B cAec | "G"Bdgd  "C"ecAG | "D7"FGAB cDBA |
y4 \
| "G"B3A BGdB | "Am"c3B cAec | "G"Bdgd "D7"ecAF |  "G"G2GF G :|
|: ABd \
| "G"g2gf gbag |  "D"f2fe fddB | "Am"c2cB cedc |  "G"Bdgd "D"fgaf |
y4 \
| "G"g2gf gbag | "Bm"f2fe fddB |  "C"c2cB cedc | "D7"BGAF "G"G :|
